X: 26
M:6/8
L:1/8
K:D
uB|\
|:ug|\
fed faf | ede fdB | AFA def | gfg eag |
fed faf | ede fdB | AFA deg | fec d2:|
|:ug|\
fdf ece | dBd AFA | AFA def | gfg eag |
fdf ece | dBd AFA | AFA deg | fec d2 "_D.C.":|


